assets/img/braze_icons/file-lock-01.svg

<svg fill="none" height="24" viewBox="0 0 24 24" width="24" xmlns="http://www.w3.org/2000/svg"><g fill="#801ed7"><path clip-rule="evenodd" d="m18.5 13.5c-1.5188 0-2.75 1.2312-2.75 2.75v.778c-.2025.024-.4296.0736-.658.19-.3763.1917-.6823.4977-.874.874-.1383.2714-.1824.5412-.201.7698-.0171.2081-.017.4539-.017.7063v.8638c0 .2524-.0001.4982.017.7063.0186.2286.0627.4984.201.7698.1917.3763.4977.6823.874.874.2714.1383.5412.1824.7698.2011.2081.017.4539.0169.7063.0169h3.8638c.2524 0 .4982.0001.7063-.0169.2286-.0187.4984-.0628.7698-.2011.3763-.1917.6823-.4977.874-.874.1383-.2714.1824-.5412.2011-.7698.017-.2081.0169-.4539.0169-.7063v-.8638c0-.2524.0001-.4982-.0169-.7063-.0187-.2286-.0628-.4984-.2011-.7698-.1917-.3763-.4977-.6823-.874-.874-.2284-.1164-.4555-.166-.658-.19v-.778c0-1.5188-1.2312-2.75-2.75-2.75zm.75 3.5v-.75c0-.4142-.3358-.75-.75-.75s-.75.3358-.75.75v.75z" fill-rule="evenodd"/><path clip-rule="evenodd" d="m18.5 13.5c-1.5188 0-2.75 1.2312-2.75 2.75v.778c-.2025.024-.4296.0736-.658.19-.3763.1917-.6823.4977-.874.874-.1383.2714-.1824.5412-.201.7698-.0171.2081-.017.4539-.017.7063v.8638c0 .2524-.0001.4982.017.7063.0186.2286.0627.4984.201.7698.1917.3763.4977.6823.874.874.2714.1383.5412.1824.7698.2011.2081.017.4539.0169.7063.0169h3.8638c.2524 0 .4982.0001.7063-.0169.2286-.0187.4984-.0628.7698-.2011.3763-.1917.6823-.4977.874-.874.1383-.2714.1824-.5412.2011-.7698.017-.2081.0169-.4539.0169-.7063v-.8638c0-.2524.0001-.4982-.0169-.7063-.0187-.2286-.0628-.4984-.2011-.7698-.1917-.3763-.4977-.6823-.874-.874-.2284-.1164-.4555-.166-.658-.19v-.778c0-1.5188-1.2312-2.75-2.75-2.75zm.75 3.5v-.75c0-.4142-.3358-.75-.75-.75s-.75.3358-.75.75v.75z" fill-rule="evenodd"/><path d="m15.2413 1h-6.4826c-.80496-.000012-1.46933-.000022-2.01052.04419-.5621.04593-1.07881.14449-1.56414.39179-.75265.38349-1.36457.99541-1.74806 1.74806-.2473.48533-.34586 1.00204-.39179 1.56414-.04421.54119-.0442 1.20554-.04419 2.01051v10.48261c-.00001.805-.00002 1.4693.04419 2.0105.04593.5621.14449 1.0788.39179 1.5642.38349.7526.99541 1.3645 1.74806 1.748.48533.2473 1.00204.3459 1.56414.3918.54119.0442 1.20554.0442 2.0105.0442h2.39162c.4588 0 .6881 0 .804-.0667.1228-.0707.1711-.1281.2199-.2611.046-.1255-.0027-.4074-.1-.971-.0228-.1323-.0396-.2658-.0506-.4001-.024-.2938-.0237-.6187-.0236-.8482v-.9057c-.0001-.2295-.0004-.5544.0236-.8482.0288-.3523.1065-.9145.4124-1.5149.3133-.6148.7789-1.1356 1.3491-1.5148.2864-2.3495 2.2881-4.1693 4.7149-4.1693.4084 0 .8047.0515 1.1829.1485.5525.1416.8287.2124.9628.1715.1376-.0419.2067-.0955.2815-.2184.0728-.1197.0728-.3561.0728-.8287v-4.01422c0-.80496 0-1.46931-.0442-2.0105-.0459-.5621-.1445-1.07881-.3918-1.56414-.3835-.75265-.9954-1.36457-1.748-1.74806-.4854-.2473-1.0021-.34586-1.5642-.39179-.5412-.044212-1.2055-.044202-2.0105-.04419z"/></g></svg>

<svg width="24" height="24" viewBox="0 0 24 24" fill="none" xmlns="http://www.w3.org/2000/svg">
<path fill-rule="evenodd" clip-rule="evenodd" d="M18.5 13.5C16.9812 13.5 15.75 14.7312 15.75 16.25V17.028C15.5475 17.052 15.3204 17.1016 15.092 17.218C14.7157 17.4097 14.4097 17.7157 14.218 18.092C14.0797 18.3634 14.0356 18.6332 14.017 18.8618C13.9999 19.0699 14 19.3157 14 19.5681V20.4319C14 20.6843 13.9999 20.9301 14.017 21.1382C14.0356 21.3668 14.0797 21.6366 14.218 21.908C14.4097 22.2843 14.7157 22.5903 15.092 22.782C15.3634 22.9203 15.6332 22.9644 15.8618 22.9831C16.0699 23.0001 16.3157 23 16.5681 23H20.4319C20.6843 23 20.9301 23.0001 21.1382 22.9831C21.3668 22.9644 21.6366 22.9203 21.908 22.782C22.2843 22.5903 22.5903 22.2843 22.782 21.908C22.9203 21.6366 22.9644 21.3668 22.9831 21.1382C23.0001 20.9301 23 20.6843 23 20.4319V19.5681C23 19.3157 23.0001 19.0699 22.9831 18.8618C22.9644 18.6332 22.9203 18.3634 22.782 18.092C22.5903 17.7157 22.2843 17.4097 21.908 17.218C21.6796 17.1016 21.4525 17.052 21.25 17.028V16.25C21.25 14.7312 20.0188 13.5 18.5 13.5ZM19.25 17V16.25C19.25 15.8358 18.9142 15.5 18.5 15.5C18.0858 15.5 17.75 15.8358 17.75 16.25V17H19.25Z" fill="#801ED7"/>
<path fill-rule="evenodd" clip-rule="evenodd" d="M18.5 13.5C16.9812 13.5 15.75 14.7312 15.75 16.25V17.028C15.5475 17.052 15.3204 17.1016 15.092 17.218C14.7157 17.4097 14.4097 17.7157 14.218 18.092C14.0797 18.3634 14.0356 18.6332 14.017 18.8618C13.9999 19.0699 14 19.3157 14 19.5681V20.4319C14 20.6843 13.9999 20.9301 14.017 21.1382C14.0356 21.3668 14.0797 21.6366 14.218 21.908C14.4097 22.2843 14.7157 22.5903 15.092 22.782C15.3634 22.9203 15.6332 22.9644 15.8618 22.9831C16.0699 23.0001 16.3157 23 16.5681 23H20.4319C20.6843 23 20.9301 23.0001 21.1382 22.9831C21.3668 22.9644 21.6366 22.9203 21.908 22.782C22.2843 22.5903 22.5903 22.2843 22.782 21.908C22.9203 21.6366 22.9644 21.3668 22.9831 21.1382C23.0001 20.9301 23 20.6843 23 20.4319V19.5681C23 19.3157 23.0001 19.0699 22.9831 18.8618C22.9644 18.6332 22.9203 18.3634 22.782 18.092C22.5903 17.7157 22.2843 17.4097 21.908 17.218C21.6796 17.1016 21.4525 17.052 21.25 17.028V16.25C21.25 14.7312 20.0188 13.5 18.5 13.5ZM19.25 17V16.25C19.25 15.8358 18.9142 15.5 18.5 15.5C18.0858 15.5 17.75 15.8358 17.75 16.25V17H19.25Z" fill="#801ED7"/>
<path d="M15.2413 1H8.7587C7.95374 0.999988 7.28937 0.999978 6.74818 1.04419C6.18608 1.09012 5.66937 1.18868 5.18404 1.43598C4.43139 1.81947 3.81947 2.43139 3.43598 3.18404C3.18868 3.66937 3.09012 4.18608 3.04419 4.74818C2.99998 5.28937 2.99999 5.95372 3 6.75869V17.2413C2.99999 18.0463 2.99998 18.7106 3.04419 19.2518C3.09012 19.8139 3.18868 20.3306 3.43598 20.816C3.81947 21.5686 4.43139 22.1805 5.18404 22.564C5.66937 22.8113 6.18608 22.9099 6.74818 22.9558C7.28937 23 7.95372 23 8.75868 23H11.1503C11.6091 23 11.8384 23 11.9543 22.9333C12.0771 22.8626 12.1254 22.8052 12.1742 22.6722C12.2202 22.5467 12.1715 22.2648 12.0742 21.7012C12.0514 21.5689 12.0346 21.4354 12.0236 21.3011C11.9996 21.0073 11.9999 20.6824 12 20.4529V19.5472C11.9999 19.3177 11.9996 18.9928 12.0236 18.699C12.0524 18.3467 12.1301 17.7845 12.436 17.1841C12.7493 16.5693 13.2149 16.0485 13.7851 15.6693C14.0715 13.3198 16.0732 11.5 18.5 11.5C18.9084 11.5 19.3047 11.5515 19.6829 11.6485C20.2354 11.7901 20.5116 11.8609 20.6457 11.82C20.7833 11.7781 20.8524 11.7245 20.9272 11.6016C21 11.4819 21 11.2455 21 10.7729V6.75868C21 5.95372 21 5.28937 20.9558 4.74818C20.9099 4.18608 20.8113 3.66937 20.564 3.18404C20.1805 2.43139 19.5686 1.81947 18.816 1.43598C18.3306 1.18868 17.8139 1.09012 17.2518 1.04419C16.7106 0.999978 16.0463 0.999988 15.2413 1Z" fill="#801ED7"/>
</svg>
